X:1
T: The Iron Man
C:J. Scott Skinner
R:Strathspey
Q: 128
K:A
M:4/4
L:1/16
|:"Winston Fitzgerald version"B2|A4 c3A B3G AB3|c4 e3c d3B ce3|f4 df3 e4 c3e|((3d2c2B2) ((3c2B2A2) GB3 Bc3|
AA3 c3A B3G AB3|c4 e3c d3B ce3|f4 df3 e3a c3A|1((3B2c2d2) ((3d2c2B2) cA3 A3E:|2((3B2c2d2) ((3d2c2B2) cA3 ((3e2f2g2) |
|:a3A g3A f3A e3A|((3c2B2A2) ((3e2f2g2) a3e ((3c2B2A2) |d3E c3E B3E c3E|((3d2c2B2) ((3c2B2A2) ((3B2c2d2) ((3e2f2g2) |
a3A g3A f3A e3A|((3c2B2A2) e3g a3e c3A|d4 f3d ((3f2e2d2) ((3c2B2A2) |1((3G2A2B2) ((3E2e2d2) cA3 A2fg:|2((3G2A2B2) ((3E2e2d2) cA3 A2||
